icons/evolvere-blue-folders-flat-vivid-dark-fallback/apps/64/icons.svg

<svg xmlns="http://www.w3.org/2000/svg" viewBox="0 0 64 64" xmlns:xlink="http://www.w3.org/1999/xlink"><defs><path id="0" d="M57 35A24 24 0 0 1 33 59 24 24 0 0 1 9 35 24 24 0 0 1 33 11 24 24 0 0 1 57 35" fill-rule="evenodd" color="#000"/></defs><g color="#000"><path d="m0 4v30 28l2 2h30 30l2-2v-28-30h-32-32" fill="#3b577a"/><path d="m2 0l-2 1v3h32 32v-3l-2-1h-30-30" fill="#668cbb"/></g><path d="m0 3v3l2-2" fill="#729bcd"/><path d="m64 6l-2-2 2-1" fill="#4f6f97"/><g transform="translate(-.5)"><use transform="matrix(-.375 0 0-.375 30.875 34.13)" fill="#a1c11f" xlink:href="#0"/><path d="m18 21v9c4.971 0 9-4.03 9-9h-9" transform="translate(.5)" color="#000" fill-rule="evenodd" fill="#dfe5ec"/><use transform="matrix(-.375 0 0-.375 30.875 60.13)" fill="#eab82d" xlink:href="#0"/><use transform="matrix(-.375 0 0-.375 58.875 34.13)" fill="#d23636" xlink:href="#0"/><path d="m37 21c0 4.971 4.03 9 9 9v-9h-9" transform="translate(.5)" color="#000" fill-rule="evenodd" fill="#dfe5ec"/><use transform="matrix(-.375 0 0-.375 58.875 60.13)" fill="#2491e0" xlink:href="#0"/><g fill="#dfe5ec" fill-rule="evenodd" color="#000"><path d="m46.5 38c-4.971 0-9 4.03-9 9h9v-9"/><path d="m18.5 38c4.971 0 9 4.03 9 9h-9v-9"/></g></g></svg>

<?xml version="1.0" encoding="UTF-8" standalone="no"?>
<!-- Created with Inkscape (http://www.inkscape.org/) -->

<svg
   xmlns:dc="http://purl.org/dc/elements/1.1/"
   xmlns:cc="http://creativecommons.org/ns#"
   xmlns:rdf="http://www.w3.org/1999/02/22-rdf-syntax-ns#"
   xmlns:svg="http://www.w3.org/2000/svg"
   xmlns="http://www.w3.org/2000/svg"
   xmlns:sodipodi="http://sodipodi.sourceforge.net/DTD/sodipodi-0.dtd"
   xmlns:inkscape="http://www.inkscape.org/namespaces/inkscape"
   width="64"
   height="64"
   id="svg13094"
   version="1.1"
   inkscape:version="0.91+devel r"
   sodipodi:docname="icons.svg">
  <sodipodi:namedview
     id="base"
     pagecolor="#ffffff"
     bordercolor="#666666"
     borderopacity="1.0"
     inkscape:pageopacity="0"
     inkscape:pageshadow="2"
     inkscape:zoom="11.313709"
     inkscape:cx="16.14945"
     inkscape:cy="30.489463"
     inkscape:document-units="px"
     inkscape:current-layer="svg13094"
     showgrid="true"
     inkscape:snap-bbox="true"
     inkscape:bbox-paths="true"
     inkscape:bbox-nodes="true"
     inkscape:snap-bbox-edge-midpoints="true"
     inkscape:snap-bbox-midpoints="true"
     inkscape:object-paths="true"
     inkscape:snap-intersection-paths="true"
     inkscape:object-nodes="true"
     inkscape:snap-smooth-nodes="true"
     inkscape:snap-midpoints="true"
     inkscape:snap-object-midpoints="true"
     inkscape:snap-center="true"
     showguides="true"
     inkscape:guide-bbox="true"
     inkscape:window-width="1920"
     inkscape:window-height="1023"
     inkscape:window-x="-10"
     inkscape:window-y="35"
     inkscape:window-maximized="1"
     inkscape:snap-global="true"
     fit-margin-top="0"
     fit-margin-left="0"
     fit-margin-right="0"
     fit-margin-bottom="0"
     showborder="true"
     inkscape:showpageshadow="false"
     inkscape:snap-page="true">
    <inkscape:grid
       type="xygrid"
       id="grid3075"
       empspacing="5"
       visible="true"
       enabled="true"
       snapvisiblegridlinesonly="true"
       originx="1.6362304e-08px"
       originy="18px" />
  </sodipodi:namedview>
  <defs
     id="defs13096" />
  <metadata
     id="metadata13099">
    <rdf:RDF>
      <cc:Work
         rdf:about="">
        <dc:format>image/svg+xml</dc:format>
        <dc:type
           rdf:resource="http://purl.org/dc/dcmitype/StillImage" />
        <dc:title></dc:title>
      </cc:Work>
    </rdf:RDF>
  </metadata>
  <path
     inkscape:connector-curvature="0"
     style="color:#000000;display:inline;overflow:visible;visibility:visible;opacity:1;fill:#3b577a;fill-opacity:1;fill-rule:nonzero;stroke:none;stroke-width:1;stroke-linecap:butt;stroke-linejoin:miter;stroke-miterlimit:4;stroke-dasharray:none;stroke-dashoffset:0;stroke-opacity:1;marker:none;enable-background:accumulate"
     d="m 0,4 0,30 0,28 2,2 30,0 30,0 2,-2 L 64,34 64,4 32,4 0,4 Z"
     id="path4095" />
  <path
     inkscape:connector-curvature="0"
     style="color:#000000;display:inline;overflow:visible;visibility:visible;opacity:1;fill:#668cbb;fill-opacity:1;fill-rule:nonzero;stroke:none;stroke-width:2.28571415;stroke-linecap:butt;stroke-linejoin:miter;stroke-miterlimit:4;stroke-dasharray:none;stroke-dashoffset:0;stroke-opacity:1;marker:none;enable-background:accumulate"
     d="M 2,0 0,1 0,4 32,4 64,4 64,1 62,0 32,0 2,0 Z"
     id="path4090" />
  <path
     inkscape:connector-curvature="0"
     style="opacity:1;fill:#729bcd;fill-opacity:1;fill-rule:nonzero;stroke-width:1;stroke-linecap:butt;stroke-linejoin:miter;stroke-miterlimit:4;stroke-dasharray:none;stroke-dashoffset:0;stroke-opacity:1"
     d="M 0,3 0,6 2,4 Z"
     id="path4298"
     sodipodi:nodetypes="cccc" />
  <path
     d="M 64,6 62,4 64,3 Z"
     id="path3028"
     style="opacity:1;fill:#4f6f97;fill-opacity:1;stroke:none;stroke-width:0.62299293;stroke-linecap:butt;stroke-linejoin:miter;stroke-miterlimit:4;stroke-dasharray:none;stroke-dashoffset:0;stroke-opacity:1;marker:none"
     inkscape:connector-curvature="0" />
  <g
     id="g3043"
     inkscape:export-filename="folder.png"
     inkscape:export-xdpi="90"
     inkscape:export-ydpi="90"
     transform="translate(-0.62500009,0.082283)" />
  <g
     id="scalable"
     transform="matrix(1.0385892,0,0,1.0385892,1214.7222,1878.8121)"
     inkscape:label="#g3701"
     style="fill:#ffffff" />
  <g
     id="g3801"
     transform="translate(-0.5,0)">
    <path
       transform="matrix(-0.375,0,0,-0.375,30.875,34.125)"
       style="color:#000000;display:inline;overflow:visible;visibility:visible;fill:#a1c11f;fill-opacity:1;fill-rule:evenodd;stroke:none;stroke-width:1.3333329;marker:none;enable-background:accumulate"
       d="M 57,35 A 24,24 0 0 1 33,59 24,24 0 0 1 9,35 24,24 0 0 1 33,11 24,24 0 0 1 57,35 Z"
       id="path3920" />
    <path
       style="color:#000000;fill:#dfe5ec;fill-opacity:1;fill-rule:evenodd;stroke:none;stroke-width:1;marker:none;visibility:visible;display:inline;overflow:visible;enable-background:accumulate;opacity:1;stroke-linecap:butt;stroke-linejoin:miter;stroke-miterlimit:4;stroke-dasharray:none;stroke-dashoffset:0;stroke-opacity:1"
       d="M 18 21 L 18 30 C 22.970563 30 27 25.970563 27 21 L 18 21 z "
       transform="translate(0.5,0)"
       id="path3026" />
    <path
       transform="matrix(-0.375,0,0,-0.375,30.875,60.125)"
       style="color:#000000;display:inline;overflow:visible;visibility:visible;fill:#eab82d;fill-opacity:1;fill-rule:evenodd;stroke:none;stroke-width:1.3333329;marker:none;enable-background:accumulate"
       d="M 57,35 A 24,24 0 0 1 33,59 24,24 0 0 1 9,35 24,24 0 0 1 33,11 24,24 0 0 1 57,35 Z"
       id="path3922" />
    <path
       transform="matrix(-0.375,0,0,-0.375,58.875,34.125)"
       style="color:#000000;display:inline;overflow:visible;visibility:visible;fill:#d23636;fill-opacity:1;fill-rule:evenodd;stroke:none;stroke-width:1.3333329;marker:none;enable-background:accumulate"
       d="M 57,35 A 24,24 0 0 1 33,59 24,24 0 0 1 9,35 24,24 0 0 1 33,11 24,24 0 0 1 57,35 Z"
       id="path3924" />
    <path
       style="color:#000000;fill:#dfe5ec;fill-opacity:1;fill-rule:evenodd;stroke:none;stroke-width:1;marker:none;visibility:visible;display:inline;overflow:visible;enable-background:accumulate;opacity:1;stroke-linecap:butt;stroke-linejoin:miter;stroke-miterlimit:4;stroke-dasharray:none;stroke-dashoffset:0;stroke-opacity:1"
       d="M 37 21 C 37 25.970563 41.029437 30 46 30 L 46 21 L 37 21 z "
       transform="translate(0.5,0)"
       id="path3029" />
    <path
       transform="matrix(-0.375,0,0,-0.375,58.875,60.125)"
       style="color:#000000;display:inline;overflow:visible;visibility:visible;fill:#2491e0;fill-opacity:1;fill-rule:evenodd;stroke:none;stroke-width:1.3333329;marker:none;enable-background:accumulate"
       d="M 57,35 A 24,24 0 0 1 33,59 24,24 0 0 1 9,35 24,24 0 0 1 33,11 24,24 0 0 1 57,35 Z"
       id="path3926" />
    <path
       inkscape:connector-curvature="0"
       style="color:#000000;fill:#dfe5ec;fill-opacity:1;fill-rule:evenodd;stroke:none;stroke-width:1;marker:none;visibility:visible;display:inline;overflow:visible;enable-background:accumulate;opacity:1;stroke-linecap:butt;stroke-linejoin:miter;stroke-miterlimit:4;stroke-dasharray:none;stroke-dashoffset:0;stroke-opacity:1"
       d="m 46.5,38 c -4.970563,0 -9,4.029437 -9,9 l 9,0 0,-9 z"
       id="path3835-2" />
    <path
       inkscape:connector-curvature="0"
       style="color:#000000;fill:#dfe5ec;fill-opacity:1;fill-rule:evenodd;stroke:none;stroke-width:1;marker:none;visibility:visible;display:inline;overflow:visible;enable-background:accumulate;opacity:1;stroke-linecap:butt;stroke-linejoin:miter;stroke-miterlimit:4;stroke-dasharray:none;stroke-dashoffset:0;stroke-opacity:1"
       d="m 18.5,38 c 4.970563,0 9,4.029437 9,9 l -9,0 0,-9 z"
       id="path3835-2-3" />
  </g>
</svg>
